other/keeper_password_manager.svg

<svg viewBox="0 0 48 48" xmlns="http://www.w3.org/2000/svg">
    <style>
        .a{fill:none;stroke:#FFFFFF;stroke-linecap:round;stroke-linejoin:round}
    </style>
    <path class="a" d="M45.5,24c0,1.039978-0.0700073,2.0700073-0.2199707,3.0700073 c-0.1100464,0.8099976-0.2700195,1.5999756-0.4800415,2.3699951C44.460022,30.75,44,32.0100098,43.4299927,33.210022 C43,34.1199951,42.5100098,34.9899902,41.960022,35.8200073c-0.7600098,1.1499634-1.6300049,2.2299805-2.6000366,3.210022 c-0.0999756,0.1199951-0.2099609,0.2299805-0.3299561,0.3299561c-0.9800415,0.9700317-2.0600586,1.8400269-3.210022,2.6000366 C34.9899902,42.5100098,34.1199951,43,33.210022,43.4299927c-1.9100342,0.9100342-3.9700317,1.539978-6.1400146,1.8500366 C26.0700073,45.4299927,25.039978,45.5,24,45.5s-2.0700073-0.0700073-3.0700073-0.2199707 c-2.1699829-0.3100586-4.2299805-0.9400024-6.1400146-1.8500366c-2.1699829-1.0299683-4.1300049-2.4099731-5.8200073-4.0700073 c-0.1199951-0.0999756-0.2299805-0.2099609-0.3299561-0.3299561c-1.6600342-1.6900024-3.0400391-3.6500244-4.0700073-5.8200073 c-0.9100342-1.9100342-1.539978-3.9700317-1.8500366-6.1400146C2.5700073,26.0700073,2.5,25.039978,2.5,24 s0.0700073-2.0700073,0.2199707-3.0700073c0.3100586-2.1699829,0.9400024-4.2299805,1.8500366-6.1400146 c1.0299683-2.1699829,2.4099731-4.1300049,4.0700073-5.8200073c0.0999756-0.1199951,0.2099609-0.2299805,0.3299561-0.3299561 c1.6900024-1.6600342,3.6500244-3.0400391,5.8200073-4.0700073c1.9100342-0.9100342,3.9700317-1.539978,6.1400146-1.8500366 C21.9299927,2.5700073,22.960022,2.5,24,2.5s2.0700073,0.0700073,3.0700073,0.2199707 c2.1699829,0.3100586,4.2299805,0.9400024,6.1400146,1.8500366C34.1199951,5,34.9899902,5.4899902,35.8200073,6.039978 c1.1499634,0.7600098,2.2299805,1.6300049,3.210022,2.6000366c0.1199951,0.0999756,0.2299805,0.2099609,0.3299561,0.3299561 c0.9700317,0.9800415,1.8400269,2.0600586,2.6000366,3.210022C42.5100098,13.0100098,43,13.8800049,43.4299927,14.789978 C44,15.9799805,44.460022,17.2399902,44.7999878,18.5499878c0.210022,0.7700195,0.3699951,1.5700073,0.4800415,2.3800049 C45.4299927,21.9299927,45.5,22.960022,45.5,24z"/>
    <line class="a" x1="8.6400003" x2="8.6400003" y1="38.9468079" y2="9.0531912"/>
    <line class="a" x1="39.3600006" x2="39.3600006" y1="33.2200012" y2="33.2099991"/>
    <line class="a" x1="39.3600006" x2="39.3600006" y1="14.79" y2="14.7799997"/>
    <line class="a" x1="14.79" x2="14.79" y1="43.2853584" y2="4.7146435"/>
    <line class="a" x1="33.2099991" x2="33.2099991" y1="39.3600006" y2="39.3499985"/>
    <line class="a" x1="33.2099991" x2="33.2099991" y1="8.6499996" y2="8.6400003"/>
    <line class="a" x1="33.2200012" x2="33.2099991" y1="8.6400003" y2="8.6400003"/>
    <line class="a" x1="33.2200012" x2="33.2099991" y1="39.3600006" y2="39.3600006"/>
    <line class="a" x1="39.3600006" x2="39.3499985" y1="14.79" y2="14.79"/>
    <line class="a" x1="39.3600006" x2="39.3499985" y1="33.2099991" y2="33.2099991"/>
    <polyline class="a" points="35.6111031,41.7511024 33.2200012,39.3600006 33.2099991,39.3600006 33.2099991,39.3499985  27.0699997,33.2099991 27.0699997,39.3600006 27.0699997,45.1752205"/>
    <polyline class="a" points="41.7240677,35.5840683 39.3600006,33.2200012 39.3499985,33.2099991 33.2099991,27.0699997  27.0699997,27.0699997 20.9300003,27.0699997 20.9300003,45.0310402"/>
    <polyline class="a" points="35.6268082,6.2331915 33.2200012,8.6400003 33.2099991,8.6499996 27.0699997,14.79  27.0699997,8.6400003 27.0699997,3.0265331"/>
    <polyline class="a" points="41.7883987,12.3516016 39.3600006,14.7799997 39.3600006,14.79 39.3499985,14.79  33.2099991,20.9300003 27.0699997,20.9300003 20.9300003,20.9300003 20.9300003,2.7802253"/>
    <polyline class="a" points="44.6639786,29.3039799 39.3600006,24 44.6812592,18.6687412"/>
</svg>

<?xml version="1.0" encoding="UTF-8"?><svg id="a" xmlns="http://www.w3.org/2000/svg" viewBox="0 0 48 48"><defs><style>.b{fill:none;stroke:#fff;stroke-linecap:round;stroke-linejoin:round;}</style></defs><path class="b" d="m45.5,24c0,1.04-.07,2.07-.22,3.07-.11.81-.27,1.6-.48,2.37-.34,1.31-.8,2.57-1.37,3.77-.43.91-.92,1.78-1.47,2.61-.76,1.15-1.63,2.23-2.6,3.21-.1.12-.21.23-.33.33-.98.97-2.0601,1.84-3.21,2.6-.83.55-1.7,1.04-2.61,1.47-1.91.91-3.97,1.54-6.14,1.85-1,.15-2.03.22-3.07.22s-2.07-.07-3.07-.22c-2.17-.3101-4.23-.94-6.14-1.85-2.17-1.03-4.13-2.41-5.82-4.07-.12-.1-.23-.21-.33-.33-1.66-1.69-3.04-3.65-4.07-5.82-.91-1.91-1.54-3.97-1.85-6.14-.15-1-.22-2.03-.22-3.07s.07-2.07.22-3.07c.3101-2.17.94-4.23,1.85-6.14,1.03-2.17,2.41-4.13,4.07-5.82.1-.12.21-.23.33-.33,1.69-1.66,3.65-3.04,5.82-4.07,1.91-.91,3.97-1.54,6.14-1.85,1-.15,2.03-.22,3.07-.22s2.07.07,3.07.22c2.17.3101,4.23.94,6.14,1.85.91.43,1.78.92,2.61,1.47,1.15.76,2.23,1.63,3.21,2.6.12.1.23.21.33.33.97.98,1.84,2.0601,2.6,3.21.55.83,1.04,1.7,1.47,2.61.57,1.19,1.03,2.45,1.37,3.76.21.77.37,1.57.48,2.38.15,1,.22,2.03.22,3.07Z"/><line class="b" x1="8.64" y1="38.9468" x2="8.64" y2="9.0532"/><line class="b" x1="39.36" y1="33.22" x2="39.36" y2="33.21"/><line class="b" x1="39.36" y1="14.79" x2="39.36" y2="14.78"/><line class="b" x1="14.79" y1="43.2854" x2="14.79" y2="4.7146"/><line class="b" x1="33.21" y1="39.36" x2="33.21" y2="39.35"/><line class="b" x1="33.21" y1="8.65" x2="33.21" y2="8.64"/><line class="b" x1="33.22" y1="8.64" x2="33.21" y2="8.64"/><line class="b" x1="33.22" y1="39.36" x2="33.21" y2="39.36"/><line class="b" x1="39.36" y1="14.79" x2="39.35" y2="14.79"/><line class="b" x1="39.36" y1="33.21" x2="39.35" y2="33.21"/><polyline class="b" points="35.6111 41.7511 33.22 39.36 33.21 39.36 33.21 39.35 27.07 33.21 27.07 39.36 27.07 45.1752"/><polyline class="b" points="41.7241 35.5841 39.36 33.22 39.35 33.21 33.21 27.07 27.07 27.07 20.93 27.07 20.93 45.031"/><polyline class="b" points="35.6268 6.2332 33.22 8.64 33.21 8.65 27.07 14.79 27.07 8.64 27.07 3.0265"/><polyline class="b" points="41.7884 12.3516 39.36 14.78 39.36 14.79 39.35 14.79 33.21 20.93 27.07 20.93 20.93 20.93 20.93 2.7802"/><polyline class="b" points="44.664 29.304 39.36 24 44.6813 18.6687"/></svg>
